packages/dnb-ui-lib/assets/icons/customer_service.svg

<svg width="16" height="16" viewBox="0 0 16 16" fill="none" xmlns="http://www.w3.org/2000/svg">
<path d="M2.86667 6.13333C1.83573 6.13333 1 6.96907 1 8V9.86666C1 10.8976 1.83573 11.7333 2.86667 11.7333H3.33333C3.59107 11.7333 3.8 11.5244 3.8 11.2667V6.6C3.8 6.34226 3.59107 6.13333 3.33333 6.13333H2.86667ZM2.86667 6.13333C2.86667 3.29827 5.16497 1 8.00003 1C9.36148 1 10.6672 1.54083 11.6298 2.50352C12.5925 3.46621 13.1334 4.77189 13.1334 6.13333M13.1334 11.7333H12.6667C12.409 11.7333 12.2 11.5244 12.2 11.2667V6.6C12.2 6.34226 12.409 6.13333 12.6667 6.13333H13.1334M13.1334 11.7333C14.1643 11.7333 15 10.8976 15 9.86666V8C15 6.96907 14.1643 6.13333 13.1334 6.13333M13.1334 11.7333V12.2C13.1334 13.2309 12.2976 14.0667 11.2667 14.0667H9.8667M9.8667 14.0667C9.8667 13.5512 9.44886 13.1333 8.9334 13.1333H8.00007C7.4846 13.1333 7.06673 13.5512 7.06673 14.0667C7.06673 14.5821 7.4846 15 8.00007 15H8.9334C9.44886 15 9.8667 14.5821 9.8667 14.0667Z" stroke="black" stroke-width="1.5" stroke-linecap="round" stroke-linejoin="round"/>
</svg>

<svg width="16" height="16" viewBox="0 0 16 16" fill="none" xmlns="http://www.w3.org/2000/svg"><path d="M2.867 6.133C1.836 6.133 1 6.97 1 8v1.867c0 1.03.836 1.866 1.867 1.866h.466a.467.467 0 00.467-.466V6.6a.467.467 0 00-.467-.467h-.466zm0 0a5.133 5.133 0 0110.266 0m0 5.6h-.466a.467.467 0 01-.467-.466V6.6c0-.258.209-.467.467-.467h.466m0 5.6c1.031 0 1.867-.835 1.867-1.866V8c0-1.03-.836-1.867-1.867-1.867m0 5.6v.467c0 1.03-.835 1.867-1.866 1.867h-1.4m0 0a.933.933 0 00-.934-.934H8A.933.933 0 008 15h.933a.933.933 0 00.934-.933z" stroke="#000" stroke-width="1.5" stroke-linecap="round" stroke-linejoin="round"/></svg>
